16x16/apps/io.webtorrent.WebTorrent.svg

<svg xmlns="http://www.w3.org/2000/svg" width="16" height="16" version="1">
 <path style="fill:#e43e54" d="M 8.5447592,-2e-8 V 7.7997731e-4 A 1.9023651,1.8191537 0 0 0 7.5486655,0.2429679 L 1.9513347,3.3335821 A 1.9023651,1.8191537 0 0 0 1,4.9093582 v 6.1812288 a 1.9023651,1.8191537 0 0 0 0.9513347,1.574994 l 5.5973308,3.090615 a 1.9023651,1.8191537 0 0 0 1.9026692,0 L 15.048666,12.665581 A 1.9023651,1.8191537 0 0 0 16,11.090587 V 4.9093582 A 1.9023651,1.8191537 0 0 0 15.048666,3.3335821 L 9.4513347,0.2429679 A 1.9023651,1.8191537 0 0 0 8.5447592,-2e-8 Z"/>
 <path style="fill:#343b45" d="M 8.5,2 3,5.0380983 V 10.959947 L 8.5,14 14,10.959947 V 5.0380983 Z"/>
 <g style="fill:#ef334c" transform="matrix(0.01586066,0,0,0.01724181,4.9999999,4.6952306)">
  <g style="fill:#ef334c">
   <path style="fill:#e43e54" transform="matrix(16.974759,0,0,15.614997,-186.72234,-169.70378)" d="M 18.5,12 C 14.357261,12 11,15.822731 11,20.537109 11.000001,27.888889 22.555556,33.666666 24,38 25.444444,33.666666 36.999999,27.888889 37,20.537109 37,15.822731 33.640786,12 29.498047,12 27.325409,12 25.37027,13.320269 24,15 22.62973,13.320269 20.672638,12 18.5,12 Z"/>
  </g>
 </g>
</svg>

<svg xmlns="http://www.w3.org/2000/svg" width="16" height="16" version="1"><path style="fill:#e43e54" d="M8.545 0a1.902 1.82 0 0 0-.996.243L1.95 3.333A1.902 1.82 0 0 0 1 4.91v6.182a1.902 1.82 0 0 0 .951 1.575l5.598 3.09a1.902 1.82 0 0 0 1.902 0l5.598-3.09A1.902 1.82 0 0 0 16 11.09V4.909a1.902 1.82 0 0 0-.951-1.575L9.45.243A1.902 1.82 0 0 0 8.545 0z"/><path style="fill:#343b45" d="M8.5 2 3 5.038v5.922L8.5 14l5.5-3.04V5.038z"/><g style="fill:#ef334c"><path style="fill:#e43e54" transform="translate(2.038 1.77) scale(.26923)" d="M18.5 12c-4.143 0-7.5 3.823-7.5 8.537C11 27.89 22.556 33.667 24 38c1.444-4.333 13-10.111 13-17.463C37 15.823 33.64 12 29.498 12c-2.173 0-4.128 1.32-5.498 3-1.37-1.68-3.327-3-5.5-3z"/></g></svg>
